X:1
T:Spande ancor a mio dispetto
T:G.F. Handel
T:Spande ancor a mio dispetto
T:HWV 165
C:G.F. Handel
%%score [ 1 2 ] 3 { 4 | 5 }
L:1/8
M:4/4
K:Emin
V:1 treble nm="Violino I" snm="Vln. I"
V:2 treble nm="Violino II" snm="Vln. II"
V:3 bass nm="Basso" snm="B."
V:4 bass nm="Continuo" snm="B.c."
V:5 bass 
V:1
 BFG^D E2 eB |"^Instrument change" c3 =d BG g2- |"^Instrument change" ge f3 B eG | %3
"^Instrument change" c/B/A/B/ GF/E/ E2 z2 |"^Instrument change" eBc^G A2 z2 | %5
"^Instrument change" z4 ae f2- |"^Instrument change" fe/^d/ e3 f Bd | %7
"^Instrument change" e2 z2 z4 |"^Instrument change" aefA B2 z2 | %9
"^Instrument change" z2 d3 c/B/ cc |"^Instrument change" B2 b3 a/g/ ag | %11
"^Instrument change" fd z2 d'abf |"^Instrument change" dABF dABF |"^Instrument change" z8 | %14
"^Instrument change" c'^gae c^GAE |"^Instrument change" z4 f4- | %16
"^Instrument change" fe/^d/ e3 =d d^c/B/ |"^Instrument change" Fb^c^a bf^dB | %18
"^Instrument change" z B g2 z g =a2 |"^Instrument change" z a b2 z4 |"^Instrument change" z8 | %21
"^Instrument change" z4 z2 eA |"^Instrument change" fD z2 z4 |"^Instrument change" z2 A3 G/^F/ G2 | %24
"^Instrument change" z F GE z e B^d |"^Instrument change" eE z2 z4 | %26
"^Instrument change" bfg^d e2 eB |"^Instrument change" c3 =d/c/ B3 b | %28
"^Instrument change" a3 b g2 z B |"^Instrument change" c^G A3 B =Ge | %30
"^Instrument change" F4 E4!fine! ||"^Instrument change" z8 |"^Instrument change" z8 | %33
"^Instrument change" z8 |"^Instrument change" eBc^G eBcA |"^Instrument change" ^G A2 G A2 a2- | %36
"^Instrument change" a=g/f/ g3 f/e/ ee |"^Instrument change" d4 z ^c Ff | %38
"^Instrument change" ^e2 =e2 z f Bb |"^Instrument change" ^a2 =a2 ^g2 =g2 | %40
"^Instrument change" f2 z g fbF^a |[M:2/4]"^Instrument change" b4!D.C.! |] %42
[M:4/4]"^Instrument change" z8 | z8 | z8 | z8 | z/ G,/G,/G,/ B,/B,/D/D/ G/G/D/D/ G/G/B/B/ | %47
 d2 z2 z4 | z8 | z8 | z A AA A2 z2 | z e ee e2 z2 | z4 z/ E/E/E/ E2 | z8 | z8 | z8 | z8 | z8 | %58
 z/ c/B/A/ G/=F/E/D/ C/C/B,/A,/ G,2 | z4 z/ G/=F/E/ D/E/C/D/ | B,2 z2 z4 | ^G,2 z2 z4 | z8 | z8 | %64
 z8 | z8 | z4 z/ d/d/d/ d/d/d/d/ | d2 z2 z/ g/g/g/ g/g/g/g/ | g2 z2 z z/ g/ g2 | z4 z/ f/f/f/ f2 | %70
 z4 z F FF | F2 z2 z2 e2 | z8 | z8 | z/ f/f/f/ d/b/b/b/ b/b/b/b/ ^a/a/a/a/ | b8 |] %76
[M:3/8]"^Andante"[Q:1/4=80]"^Violini unisoni"[Q:1/4=80] B/d/g/B/A/f/ |"^Instrument change" gG z | %78
"^Instrument change" B/d/g/B/A/f/ |"^Instrument change" G/B/e/G/F/d/ | %80
"^Instrument change" E/G/c/E/D/B/ |"^Instrument change" C/B/A/B/G/A/ | %82
"^Instrument change" F/D/F/A/d/A/ |"^Instrument change" B/G/B/d/g/d/ | %84
"^Instrument change" e/c/e/g/a/e/ |"^Instrument change" f/A/ d2- |"^Instrument change" d/e/ c2- | %87
"^Instrument change" c/d/B/d/g/d/ |"^Instrument change" e/g/B/g/A/f/ |"^Instrument change" gG z | %90
"^Instrument change" z3 |"^Instrument change" B/d/g/B/A/f/ |"^Instrument change" g/d/g/B/A/f/ | %93
"^Instrument change" g/d/g/B/A/f/ |"^Instrument change" G/B/e/G/F/d/ | %95
"^Instrument change" E/G/c/E/D/B/ |"^Instrument change" C/B/A/B/G/A/ |"^Instrument change" Fdd | %98
"^Instrument change" d/B/^G/B/E/G/ |"^Instrument change" A,2 z |"^Instrument change" z3 | %101
"^Instrument change" z a2- |"^Instrument change" a/f/ g2- |"^Instrument change" g/e/ f2- | %104
"^Instrument change" f/b/g/b/e/g/ |"^Instrument change" ^c/e/A/c/d/F/ | %106
"^Instrument change" E/d/A,/d/A/^c/ |"^Instrument change" d2 z |"^Instrument change" DFA | %109
"^Instrument change" dD z |"^Instrument change" z d2- |"^Instrument change" de/d/c/B/ | %112
"^Instrument change" c3- |"^Instrument change" cd/c/B/A/ |"^Instrument change" B/d/g/B/A/f/ | %115
"^Instrument change" G/B/e/G/F/d/ |"^Instrument change" E/G/c/E/D/F/ |"^Instrument change" G2 z | %118
"^Instrument change" dc/B/A/G/ |"^Instrument change" FD z |"^Instrument change" dc/B/A/G/ | %121
"^Instrument change" FD z |"^Instrument change" dc/B/A/G/ |"^Instrument change" FD z | %124
"^Instrument change" eaa |"^Instrument change" ^gef |"^Instrument change" =g>fg/a/ | %127
"^Instrument change" f/a/b/a/^g/f/ |"^Instrument change" e/=g/a/g/f/e/ | %129
"^Instrument change" de/d/c/B/ |"^Instrument change" A2 z |"^Instrument change" z/ f/g/B/A/f/ | %132
"^Instrument change" g/d/g/B/A/f/ |"^Instrument change" G2 z |"^Instrument change" z3 | %135
"^Instrument change" _B/A/A/G/G/F/ |"^Instrument change" F/E/D z |"^Instrument change" z3 | %138
"^Instrument change" B/d/g/B/A/f/ |"^Instrument change" G/B/e/G/F/d/ | %140
"^Instrument change" E/G/c/E/D/B/ |"^Instrument change" C/B/A/B/G/A/ | %142
"^Instrument change" F/D/F/A/d/A/ |"^Instrument change" B/G/B/d/g/d/ | %144
"^Instrument change" e/c/e/g/a/e/ |"^Instrument change" f/A/ d2- |"^Instrument change" d/e/ c2- | %147
"^Instrument change" c/d/B/d/g/d/ |"^Instrument change" e/B/c/G/A/E/ | %149
"^Instrument change" F/e/d/F/G/g/ |"^Instrument change" e/g/B/g/A/f/ | %151
"^Instrument change" gG z!fine! ||"^Instrument change" z3 |"^Instrument change" z3 | %154
"^Instrument change" z3 |"^Instrument change" z3 |"^Instrument change" z3 | %157
"^Instrument change" z3 |"^Instrument change" z3 |"^Instrument change" z3 | %160
"^Instrument change" z3 |"^Instrument change" z3 |"^Instrument change" z3 | %163
"^Instrument change" z3 |"^Instrument change" z3 |"^Instrument change" z3 | %166
"^Instrument change" z3 |"^Instrument change" z3 |"^Instrument change" z3 | %169
"^Instrument change" z3 |"^Instrument change" z3 |"^Instrument change" z3!D.C.! |] %172
V:2
 z2 BF G^D E2 |"^Instrument change" AE F2 G2 z2 |"^Instrument change" A3 F G2 z B | %3
"^Instrument change" AEE^D E2 BF |"^Instrument change" G2 z2 z4 | %5
"^Instrument change" z2 eB c3 B/A/ |"^Instrument change" B3 A/G/ FA GF/E/ | %7
"^Instrument change" E2 z2 eBc^G |"^Instrument change" A2 z2 z2 =g2- | %9
"^Instrument change" gf/e/ ff e2 a2- |"^Instrument change" ag ga/b/ e3 e | %11
"^Instrument change" A2 g3 f d'a |"^Instrument change" bfgd BFGD |"^Instrument change" z4 e4- | %14
"^Instrument change" eBc^G eBcG |"^Instrument change" z8 |"^Instrument change" g3 a/g/ f4 | %17
"^Instrument change" z2 f^c ^dBbf |"^Instrument change" g2 z =d e2 z e | %19
"^Instrument change" f2 z f B2 z2 |"^Instrument change" z8 |"^Instrument change" z2 dB, EC z2 | %22
"^Instrument change" z2 BB, gG z2 |"^Instrument change" z4 z2 z ^d | %24
"^Instrument change" e2 z G F2 z B |"^Instrument change" G2 z2 z4 | %26
"^Instrument change" z2 bf g^d e2 |"^Instrument change" z2 a3 =d g2- | %28
"^Instrument change" gf/e/ f3 B eG |"^Instrument change" AEF^C ^D2 E2- | %30
"^Instrument change" E2 ^D2 E4 ||"^Instrument change" z8 |"^Instrument change" z8 | %33
"^Instrument change" z8 |"^Instrument change" z2 eB c^GAC |"^Instrument change" B,A,=FE C2 z2 | %36
"^Instrument change" z4 ^c4- |"^Instrument change" cB/^A/ BF ^c2 z2 | %38
"^Instrument change" z B Ee ^d2 =d2 |"^Instrument change" ^c2 =c2 B2 e2 | %40
"^Instrument change" A^cde d2 c>B |[M:2/4]"^Instrument change" B4 |] %42
[M:4/4]"^Instrument change" z8 | z8 | z8 | z8 | z/ G,/G,/G,/ G,/G,/B,/B,/ B,/B,/B,/B,/ B,/D/D/D/ | %47
 B2 z2 z4 | z8 | z8 | z F FF F2 z2 | z ^G GG G2 z2 | z4 z/ A,/A,/A,/ A,2 | z8 | z8 | z8 | z8 | z8 | %58
 z/ c/B/A/ G/=F/E/D/ C/C/B,/A,/ G,2 | z4 z/ G/=F/E/ D/E/C/D/ | B,2 z2 z4 | ^G,2 z2 z4 | z8 | z8 | %64
 z8 | z8 | z4 z/ A/A/A/ A/A/A/A/ | A2 z2 z/ d/d/d/ d/d/d/d/ | d2 z2 z z/ c/ c2 | z4 z/ c/c/c/ ^A2 | %70
 z4 z B, B,B, | B,2 z2 z2 G2 | z8 | z8 | z/ ^A/A/A/ B/B/B/B/ ^c/c/c/c/ c/c/c/c/ | d8 |] %76
[M:3/8]"^Instrument change" x/x/x/x/x/x/ |"^Instrument change" xx x | %78
"^Instrument change" x/x/x/x/x/x/ |"^Instrument change" x/x/x/x/x/x/ | %80
"^Instrument change" x/x/x/x/x/x/ |"^Instrument change" x/x/x/x/x/x/ | %82
"^Instrument change" x/x/x/x/x/x/ |"^Instrument change" x/x/x/x/x/x/ | %84
"^Instrument change" x/x/x/x/x/x/ |"^Instrument change" x/x/ x2- |"^Instrument change" x/x/ x2- | %87
"^Instrument change" x/x/x/x/x/x/ |"^Instrument change" x/x/x/x/x/x/ |"^Instrument change" xx x | %90
"^Instrument change" x3 |"^Instrument change" x/x/x/x/x/x/ |"^Instrument change" x/x/x/x/x/x/ | %93
"^Instrument change" x/x/x/x/x/x/ |"^Instrument change" x/x/x/x/x/x/ | %95
"^Instrument change" x/x/x/x/x/x/ |"^Instrument change" x/x/x/x/x/x/ |"^Instrument change" xxx | %98
"^Instrument change" x/x/x/x/x/x/ |"^Instrument change" x2 x |"^Instrument change" x3 | %101
"^Instrument change" x x2- |"^Instrument change" x/x/ x2- |"^Instrument change" x/x/ x2- | %104
"^Instrument change" x/x/x/x/x/x/ |"^Instrument change" x/x/x/x/x/x/ | %106
"^Instrument change" x/x/x/x/x/x/ |"^Instrument change" x2 x |"^Instrument change" xxx | %109
"^Instrument change" xx x |"^Instrument change" x x2- |"^Instrument change" xx/x/x/x/ | %112
"^Instrument change" x3- |"^Instrument change" xx/x/x/x/ |"^Instrument change" x/x/x/x/x/x/ | %115
"^Instrument change" x/x/x/x/x/x/ |"^Instrument change" x/x/x/x/x/x/ |"^Instrument change" x2 x | %118
"^Instrument change" xx/x/x/x/ |"^Instrument change" xx x |"^Instrument change" xx/x/x/x/ | %121
"^Instrument change" xx x |"^Instrument change" xx/x/x/x/ |"^Instrument change" xx x | %124
"^Instrument change" xxx |"^Instrument change" xxx |"^Instrument change" x>xx/x/ | %127
"^Instrument change" x/x/x/x/x/x/ |"^Instrument change" x/x/x/x/x/x/ | %129
"^Instrument change" xx/x/x/x/ |"^Instrument change" x2 x |"^Instrument change" x/ x/x/x/x/x/ | %132
"^Instrument change" x/x/x/x/x/x/ |"^Instrument change" x2 x |"^Instrument change" x3 | %135
"^Instrument change" x/x/x/x/x/x/ |"^Instrument change" x/x/x x |"^Instrument change" x3 | %138
"^Instrument change" x/x/x/x/x/x/ |"^Instrument change" x/x/x/x/x/x/ | %140
"^Instrument change" x/x/x/x/x/x/ |"^Instrument change" x/x/x/x/x/x/ | %142
"^Instrument change" x/x/x/x/x/x/ |"^Instrument change" x/x/x/x/x/x/ | %144
"^Instrument change" x/x/x/x/x/x/ |"^Instrument change" x/x/ x2- |"^Instrument change" x/x/ x2- | %147
"^Instrument change" x/x/x/x/x/x/ |"^Instrument change" x/x/x/x/x/x/ | %149
"^Instrument change" x/x/x/x/x/x/ |"^Instrument change" x/x/x/x/x/x/ |"^Instrument change" xx x || %152
"^Instrument change" z3 |"^Instrument change" z3 |"^Instrument change" z3 | %155
"^Instrument change" z3 |"^Instrument change" z3 |"^Instrument change" z3 | %158
"^Instrument change" z3 |"^Instrument change" z3 |"^Instrument change" z3 | %161
"^Instrument change" z3 |"^Instrument change" z3 |"^Instrument change" z3 | %164
"^Instrument change" z3 |"^Instrument change" z3 |"^Instrument change" z3 | %167
"^Instrument change" z3 |"^Instrument change" z3 |"^Instrument change" z3 | %170
"^Instrument change" z3 |"^Instrument change" z3 |] %172
V:3
 z8 | z8 | z8 | z4 B,F,G,^D, | E,3 B, C3 =D | B,G, E,2 z4 | z8 | B,F,G,^D, E,3 B, | C3 =D B,G,B,C | %9
w: |||Span- * de an-|cor a mio di-|spet- * to,||span- * de an- cor a|mio di- spet- to nu- be|
 DD,F,G, A,A,,C,D, | E,F,G,E, CC, C2- | CB,/A,/ B,G, D,4- | D,4 D,4 | DA,B,F, ^G,E,A,A,, | %14
w: den- sa\_o- scu- ra\_e bru- na fie- ro|nem- bo\_in fac- cia\_al so- le,\_in fac-|* * * * cia\_al so-|* le,|span- * de an- co- ra\_in fac- cia\_al|
 E,4 E,4 | EB,^C^G, ^A,F,B,D, | E,B,^CB, ^A,F,B,E, | F,4 B,,4 | z8 | z2 B,F, G,E,CA,, | %20
w: so- le|nu- * be _ den- sa\-o- scu- ra\-e|bru- na fie- ro nem- bo\-in fac- cia\-al|so- le,||span- de\_an- cor a mio di-|
 F,D,B,G,, E,C,A,F, | ^D,B,, G,3 F,/E,/ A,2- | A,G,/F,/ B,3 A,/G,/ CB, | A,G, =F,3 E,/^D,/ E,2- | %24
w: spet- to nu- be den- sa\_o- scu- ra\_e|bru- na fie- ro _ nem-|* bo in fa- cia al- so- le,|fie- ro nem- bo in fac-|
 E,^A,B,E, B,,4 | E,,2 EB, C^G, =A,/B,/C | B,,4 E,,2 z2 | z8 | z8 | z8 | z4 z2 G,2- || %31
w: * cia, fac- cia so-|le, fie- ro nem- bo\-in fac- * cia\_al|so- le.||||E\il|
 G,A,F,G, A,3 B, | ^G,E,CC C_B,B,B, | _B,A,DD DC/=B,/ CB,/A,/ | E,4 E,4 | z2 B,>B, CA,F,D, | %36
w: _ mio cor che lan- gue\_in|pet- to al ri- gor di sua for-|tu- na, più s'af- fan- na e più si _|duo- le,|e\_il mio cor che lan- gue\_in|
 B,^DEE, ^A,^CA,F, | B,F,B,,B, ^A,2 =A,2 | ^G,2 =G,2 F,4 | F,2 ^D>D EE, ^C>C | =D^A,B,E, F,4 | %41
w: pet- to al ri- gor di sua for-|tu- na più s'af- fan- na\_e|più si duo-|le, più s'af- fan- na, più si|duo- le, più si duo-|
[M:2/4] B,,4 |][M:4/4] ^C2 z2 F,F,F,G, | G,2 G,2 G,F,/E,/ F,G, | ^A,,2 A,,2 z2 F,G, | %45
w: le.|O! che da fie- re|pe- ne qua- si da mo- stri\_or-|ren- di por- to\_il|
 E,2 F,^C, D,D, z2 | z4 z2 DD | B,2 A,G, DC/B,/ A,/B,/G,/A,/ | %48
w: cor la- ce- ra- to|fre- me\_il|ma- re\_a- gi- ta- * * * * * *|
 F,/D/C/B,/ A,/G,/F,/E,/ D,/A,,/B,,/^C,/"^#" D,/A,,/D,/D,/ | F,/D,/F,/F,/ A,/F,/A,/A,/ D2 D,,2 | %50
w: |* * * * * * * * * to|
 z2 z A, A,A,B,C | ^G,2 G,2 z2 z B,/A,/ | ^G,F,/E,/ A,A, z2 z E/D/ | %53
w: più non son l'au- re\_a-|me- ne ma rab-|bio- so\_o- gni ven- to cor- *|
 C/B,/A,/=G,/ =F,/E,/D,/C,/ F,F,/F,/ E,D, | DD z2 z D DA, | ^DD z2 A,A,/A,/ B,F, | %56
w: * * * * * * * * * re le vie del|cie- lo, e con ol-|trag- gio to- glie la ver- de|
 G,G, z B, CA, z E | B,,4 E,,4 | z4 z2 z D | B,B,CD G,G, z2 | z2 G,G,, z G,, B,,D, | %61
w: chio- ma al pi- no, al|fag- gio.|Pre-|ci- pi- to- so\_il fiu- me,|ca- de di bal- za\_in|
 =F,F, z F, F,F,E,D, | B,B, z B,/B,/ ^G,2 ^F,E, | A,A, z2 z =G, A,E, | =F,F, z A, F,F,E,D, | %65
w: bal- za, e do- ve più s'in-|al- za da tor- ren- ti\_ac- cre-|sciu- to al cam- po\_i|fio- ri e- l'in- no- cen- ti\_o-|
 G,2 z2 _B,2 G,=F, | E,D, z2 z4 | DA, ^F,E,/D,/ G,G, z2 | G,G,/G,/ B,G, CC z C | CCCB, ^A,A, z2 | %70
w: vil to- glie\_a pa-|sto- ri.|Tuo- na l'e- tra\_e ba- le- na|ful- mi- na Gio- ve\_i- ra- to e|te- ne- bro- so\_il cie- lo|
 ^C^A,/A,/ ^G,F, B,B, z2 | z B,/=A,/ A,B,/F,/ =G,G, z/ B,/A,/B,/ | %72
w: cin- to d'o- scu- ro ve- lo|cuo- pre tut- to d'or- ro- re un di- spe-|
 G,/B,/A,/B,/ G,/A,/F,/G,/ E,/E/D/E/ ^C/D/B,/C/ | %73
w: ra- * * * * * * * * * * * * * * *|
 ^A,/^C/B,/C/ F,/G,/E,/F,/ D,/F,/E,/D,/ ^C,/D,/B,,/C,/ | F,,8 | B,,8 |][M:3/8] z3 | z3 | z3 | z3 | %80
w: ||to.|||||
 z3 | z3 | z3 | z3 | z3 | z3 | z3 | z3 | z3 | z3 | G,B,D | B,G, z | G,B,D | B,G,D | E,G,B, | %95
w: ||||||||||Da bal- za\_in|bal- za,|da bal- za\_in|bal- * za|se ca- de\_il|
 C,E,G, | A,,CC | CB,/A,/B,/A,/ | ^G,/F,/E,D | ^CB,/A,/D/F,/ | G,/D,/A,A,, | D,3 | z3 | z3 | z3 | %105
w: fiu- * me,|da pe- na\_in|pe- * * na, _|da _ pe- na\_in|pe- * * na _|pur _ pas- sa\_il|cor;||||
 z3 | z3 | D,F,A, | DD, z | D,F,A, | D/C/B,/A,/G,/F,/ | E,/D,/C,/B,,/A,,/G,,/ | C/B,/A,/G,/F,/E,/ | %113
w: ||da bal- za\_in|bal- za,|da bal- za\_in|bal- * * * * *|||
 D,/C,/D,/E,/F,/D,/ | G,/A,/B,/G,/D/D,/ | E,/F,/G,/E,/B,/B,,/ | C,/D,/E,/F,/G,/A,/ | %117
w: ||||
 B,/A,/G,/A,/B,/C/ | DD, z | DC/B,/A,/G,/ | F,D, z | DC/B,/A,/G,/ | F,D, z | A,DD | ^CA,B, | =CCC | %126
w: |* za,|se ca- * de il|fiu- me,|se ca- * de il|fiu- me,|da pe- na\_in|pe- * na|pur pas- sa\_il|
 B,E,E | ^D =D2 | ^C =C2 | B,C/B,/A,/G,/ | F,/E,/F,/D,/G, | C,D,>D, | G,,2 z | _B,B,B, | _B,A,G, | %135
w: cor, _ da|pe- na\_in|pe- na,|pur pas- * sa il|cor, _ _ _ _|pur pas- sa\_il|cor,|da pe- na\_in|pe- * na,|
 ^CCC | D>=CB,/F,/ | G,/C,<D,D,/ | G,,3 | z3 | z3 | z3 | z3 | z3 | z3 | z3 | z3 | z3 | z3 | z3 | %150
w: da pe- na\_in|pe- na _ _|pur _ pas- sa\_il|cor.||||||||||||
 z3 | z3 || B,A,/G,/F,/E,/ | ^D,B,, z | B,A,/G,/F,/E,/ | ^D,/B,,<B,A,/ | G,/E,<E=D/ | C/E,<A,G,/ | %158
w: ||E mai _ s'in- *|al- za,|e mai _ s'in- *|al- * * *|||
 F,/D,<DC/ | B,/A,/G,/B,/A,/G,/ | A, F,2 | G,A,/G,/F,/E,/ | B,CD | E,DB, | C>B,A,/^G,/ | %165
w: ||* za|so- pra _ le _|piu- * me|di\_a- mor che|fre- na _ _|
 A,/D,<E,E,/ | A,,A,>B, | ^G,/E,<=G,A,/ | F,/D,/D^C | ^A,>F,B,/D,/ | E,/G,<F,F,/ | B,,3 |] %172
w: l'al- * trui do-|lor, _ _|_ _ _ _|* di\_a- mor che|fre- * na _|l'al- * trui do-|lor.|
V:4
[K:C] z8"^Instrument change" |"^Instrument change" z8"^Instrument change" | %2
"^Instrument change" z8"^Instrument change" |"^Instrument change" z8"^Instrument change" | %4
"^Instrument change" z8"^Instrument change" |"^Instrument change" z8"^Instrument change" | %6
"^Instrument change" z8"^Instrument change" |"^Instrument change" z8"^Instrument change" | %8
"^Instrument change" z8"^Instrument change" |"^Instrument change" z8"^Instrument change" | %10
"^Instrument change" z8"^Instrument change" |"^Instrument change" z8"^Instrument change" | %12
"^Instrument change" z8 |"^Instrument change" z8 |"^Instrument change" z8"^Instrument change" | %15
"^Instrument change" z8"^Instrument change" |"^Instrument change" z8"^Instrument change" | %17
"^Instrument change" z8"^Instrument change" |"^Instrument change" z8"^Instrument change" | %19
"^Instrument change" z8"^Instrument change" |"^Instrument change" z8"^Instrument change" | %21
"^Instrument change" z8"^Instrument change" |"^Instrument change" z8"^Instrument change" | %23
"^Instrument change" z8"^Instrument change" |"^Instrument change" z8"^Instrument change" | %25
"^Instrument change" z8"^Instrument change" |"^Instrument change" z8"^Instrument change" | %27
"^Instrument change" z8"^Instrument change" |"^Instrument change" z8"^Instrument change" | %29
"^Instrument change" z8"^Instrument change" |"^Instrument change" z8"^Instrument change" || %31
"^Instrument change" z8"^Instrument change" |"^Instrument change" z8"^Instrument change" | %33
"^Instrument change" z8"^Instrument change" |"^Instrument change" z8 |"^Instrument change" z8 | %36
"^Instrument change" z8"^Instrument change" |"^Instrument change" z8"^Instrument change" | %38
"^Instrument change" z8"^Instrument change" |"^Instrument change" z8"^Instrument change" | %40
"^Instrument change" z8"^Instrument change" |[M:2/4]"^Instrument change" z4 |] %42
[M:4/4]"^Instrument change" x2 x2 xxxx | x2 x2 xx/x/ xx | x2 x2 x2 xx | x2 xx xx x2 | x4 x2 xx | %47
 x2 xx xx/x/ x/x/x/x/ | x/x/x/x/ x/x/x/x/ x/x/x/x/ x/x/x/x/ | x/x/x/x/ x/x/x/x/ x2 x2 | %50
 x2 x x xxxx | x2 x2 x2 x x/x/ | xx/x/ xx x2 x x/x/ | x/x/x/x/ x/x/x/x/ xx/x/ xx | xx x2 x x xx | %55
 xx x2 xx/x/ xx | xx x x xx x x | x4 x4 | x4 x2 x x | xxxx xx x2 | x2 xx x x xx | xx x x xxxx | %62
 xx x x/x/ x2 xx | xx x2 x x xx | xx x x xxxx | x2 x2 x2 xx | xx x2 x4 | xx xx/x/ xx x2 | %68
 xx/x/ xx xx x x | xxxx xx x2 | xx/x/ xx xx x2 | x x/x/ xx/x/ xx x/ x/x/x/ | %72
 x/x/x/x/ x/x/x/x/ x/x/x/x/ x/x/x/x/ | x/x/x/x/ x/x/x/x/ x/x/x/x/ x/x/x/x/ | x8 | x8 |] %76
[M:3/8]"^Instrument change" z3"^Instrument change" |"^Instrument change" z3"^Instrument change" | %78
"^Instrument change" z3"^Instrument change" |"^Instrument change" z3"^Instrument change" | %80
"^Instrument change" z3"^Instrument change" |"^Instrument change" z3"^Instrument change" | %82
"^Instrument change" z3"^Instrument change" |"^Instrument change" z3"^Instrument change" | %84
"^Instrument change" z3"^Instrument change" |"^Instrument change" z3"^Instrument change" | %86
"^Instrument change" z3"^Instrument change" |"^Instrument change" z3"^Instrument change" | %88
"^Instrument change" z3"^Instrument change" |"^Instrument change" z3"^Instrument change" | %90
"^Instrument change" z3"^Instrument change" |"^Instrument change" z3"^Instrument change" | %92
"^Instrument change" z3"^Instrument change" |"^Instrument change" z3"^Instrument change" | %94
"^Instrument change" z3"^Instrument change" |"^Instrument change" z3"^Instrument change" | %96
"^Instrument change" z3"^Instrument change" |"^Instrument change" z3"^Instrument change" | %98
"^Instrument change" z3"^Instrument change" |"^Instrument change" z3"^Instrument change" | %100
"^Instrument change" z3"^Instrument change" |"^Instrument change" z3"^Instrument change" | %102
"^Instrument change" z3"^Instrument change" |"^Instrument change" z3"^Instrument change" | %104
"^Instrument change" z3"^Instrument change" |"^Instrument change" z3"^Instrument change" | %106
"^Instrument change" z3"^Instrument change" |"^Instrument change" z3"^Instrument change" | %108
"^Instrument change" z3"^Instrument change" |"^Instrument change" z3"^Instrument change" | %110
"^Instrument change" z3"^Instrument change" |"^Instrument change" z3"^Instrument change" | %112
"^Instrument change" z3"^Instrument change" |"^Instrument change" z3"^Instrument change" | %114
"^Instrument change" z3"^Instrument change" |"^Instrument change" z3"^Instrument change" | %116
"^Instrument change" z3"^Instrument change" |"^Instrument change" z3"^Instrument change" | %118
"^Instrument change" z3"^Instrument change" |"^Instrument change" z3"^Instrument change" | %120
"^Instrument change" z3"^Instrument change" |"^Instrument change" z3"^Instrument change" | %122
"^Instrument change" z3"^Instrument change" |"^Instrument change" z3"^Instrument change" | %124
"^Instrument change" z3"^Instrument change" |"^Instrument change" z3"^Instrument change" | %126
"^Instrument change" z3"^Instrument change" |"^Instrument change" z3"^Instrument change" | %128
"^Instrument change" z3"^Instrument change" |"^Instrument change" z3"^Instrument change" | %130
"^Instrument change" z3"^Instrument change" |"^Instrument change" z3"^Instrument change" | %132
"^Instrument change" z3"^Instrument change" |"^Instrument change" z3"^Instrument change" | %134
"^Instrument change" z3"^Instrument change" |"^Instrument change" z3"^Instrument change" | %136
"^Instrument change" z3"^Instrument change" |"^Instrument change" z3"^Instrument change" | %138
"^Instrument change" z3"^Instrument change" |"^Instrument change" z3"^Instrument change" | %140
"^Instrument change" z3"^Instrument change" |"^Instrument change" z3"^Instrument change" | %142
"^Instrument change" z3"^Instrument change" |"^Instrument change" z3"^Instrument change" | %144
"^Instrument change" z3"^Instrument change" |"^Instrument change" z3"^Instrument change" | %146
"^Instrument change" z3"^Instrument change" |"^Instrument change" z3"^Instrument change" | %148
"^Instrument change" z3"^Instrument change" |"^Instrument change" z3"^Instrument change" | %150
"^Instrument change" z3"^Instrument change" |"^Instrument change" z3"^Instrument change" || %152
"^Instrument change" z3"^Instrument change" |"^Instrument change" z3"^Instrument change" | %154
"^Instrument change" z3"^Instrument change" |"^Instrument change" z3"^Instrument change" | %156
"^Instrument change" z3"^Instrument change" |"^Instrument change" z3"^Instrument change" | %158
"^Instrument change" z3"^Instrument change" |"^Instrument change" z3"^Instrument change" | %160
"^Instrument change" z3"^Instrument change" |"^Instrument change" z3"^Instrument change" | %162
"^Instrument change" z3"^Instrument change" |"^Instrument change" z3"^Instrument change" | %164
"^Instrument change" z3"^Instrument change" |"^Instrument change" z3"^Instrument change" | %166
"^Instrument change" z3"^Instrument change" |"^Instrument change" z3"^Instrument change" | %168
"^Instrument change" z3"^Instrument change" |"^Instrument change" z3"^Instrument change" | %170
"^Instrument change" z3"^Instrument change" |"^Instrument change" z3 |] %172
V:5
[K:C] E,,2 z2 E,B,,C,^G,, | A,,C,D,D,, =G,D,E,B,, | ^C,2 ^D,2 E,2 G,E, | A,=CB,B,, E,2 z2 | %4
 z4 A,E,^F,D, | G,3 ^G, A,C, D,2 | =G,3 ^F,/E,/ A,F,B,B,, | E,2 E,B,, C,^G,,A,,E,, | %8
 A,,C,D,D,, =G,,2 B,C | DD,^F,G, A,A,,C,D, | E,^F,G,E, CC, C2- | CB,/A,/ B,G, D,4- | D,8- | %13
 D,4"^K2" D,2 C,A,, | E,4 E,4 | E,4 E,2 D,2 | E,B,^CB, ^A,^F,B,E, | ^F,2 ^F,,2 B,,2 z ^D, | %18
 E,2 z B,, C,2 z ^C, | D,2 z ^D, E,2 A,,2 | =D,2 G,,2 C,2 ^F,,2 | B,,2 z B,, C,2 z ^C, | %22
 D,2 z ^D, E,3 =D, | C,B,,A,,B,, C,3 B,, | ^A,,3 A,, B,,4 | E,,2 G,,^G,, =A,,B,,C,A,, | %26
 B,,4 E,2 z2 | A,E,^F,D, G,A,B,G, | ^C,^C^DB, E=D=CB, | A,2 z A, B,B,,=C,G,, | %30
 A,,2 B,,2 E,,2 E,D, || ^C,2 D,3 C, B,,^D, | E,^G,A,A,, =D,2 z E, | =F,=F,, F,E,/D,/ E,A,,A,D, | %34
 E,8 | E,C,D,E, A,,C,D,^F,, | G,,B,,E,E,, ^A,,3 ^F,, | B,,2 z B, ^A,2 =A,2 | %38
"^´" ^G,2 =G,2"^´""^y4" ^F,4 | ^F,2 ^D2 EE, ^C2 | =D^A,B,E, ^F,4 |[M:2/4] B,,4 |][M:4/4] ^A,,8- | %43
 A,,8- | A,,8- | A,,4 B,,4 | z/ G,,/G,,/G,,/ G,,/G,,/G,,/G,,/ G,,G,/G,/ G,/G,/G,/G,/ | %47
 G,2 z2"^6" ^F,4 | z8 | z8 | z D, D,D, D,2 z2 | z D, D,D, D,2 z2 | z4 z/ C,/C,/C,/ C,2 | %53
 z4 D,2 z2 | =F,8 | ^F,8 | E,4 A,,4 | B,,4 E,,4 | z/ C/B,/A,/ G,/=F,/E,/D,/ C,/C,/B,,/A,,/ G,,2 | %59
 z4 z/ G,/=F,/E,/ D,/E,/C,/D,/ | B,,2 z2 z4 | ^G,,2 z2 z4 |"^K2" D,2 z2 z4 | ^C,2 z2 z4 | %64
 D,2 z2 z4 | _B,,2 z2 z4 | A,,2 D,2 z/ ^F,,/F,,/F,,/ F,,/F,,/F,,/F,,/ | %67
 ^F,,2 z2 z/ B,,/B,,/B,,/ B,,/B,,/B,,/B,,/ | B,,2 z2 z z/ E,/ E,2 | z4 z/ E,/E,/E,/ E,2 | %70
 z4 z D, D,D, | ^D,2 z2 z2 E,2 | z8 | z8 | %74
 z/ ^F,/F,/F,/ B,/B,/D,/D,/ F,/F,/F,/F,/ ^F,,/F,,/F,,/F,,/ | B,,8 |][M:3/8]"^Andante" G,,2 z | %77
 G,B,,D, | G,B,,D, | E,G,B, | CE,G, | E,C,C | D,D^F, | G,G,,B,, | C,A,,C, | D,B,/A,/B,/^F,/ | %86
 ^G,/E,/A,/=G,/A,/E,/ | ^F,/D,/G,B,, | C,D,D,, | G,B,,D, | G,,2 z | G,B,,D, | G,,2 z | G,B,,D, | %94
 E,G,B, | C,E,G, | A,,A,A,, | D,B,,D, | E,2 ^G, | A,=G,^F, | G,A,A,, | D,/E,/^F,/G,/A,/F,/ | %102
 B,/B,,/E,/^F,/G,/E,/ | A,/C,/D,/E,/^F,/D,/ | G,E,G, | A,^F,B, | G,A,A,, | D,2 z | D,A,,^F,, | %109
 D,,2 z | D,B,,D, | E,2 z | A,,C,A,, | D,^F,D, | G,B,,D, | E,G,,B,, | C,E,C, | G,G,,E, | D,G,C, | %119
 D,G,C, | D,G,C, | D,G,,C, | D,G,,C, | D,B,,E, | A,,2 B, | CCC | B,G,E, | B,^G,E, | A,^F,D, | %129
 G,C,G,, | D,B,,E, | C,D,D,, | G,,B,,D, | G,,G,E, | ^C,2 z | E,2 z | ^F,2 G, | C,D,D,, | G,,B,,D, | %139
 E,G,B, | C,E,G, | E,C,C | D,D^F, | G,G,,B,, | C,A,,C, | D,/^F,/B,/A,/B,/F,/ | %146
 ^G,/E,/A,/=G,/A,/E,/ | ^F,/D,/G,B,, | C, C2- | CB,/A,/B, | CDD, | G,,2 z || E,G,,A,, | B,,^D,B,, | %154
 E,G,,A,, | B,,^D,B,, | E,G,E, | A,C,A,, | D,^F,D, | G,B,,G,, | C,A,,B,, | E,D,C, | B,,B,A, | %163
 ^G,2 G, | A,E,=F, | D, E,2 | A,,>B,,C,/D,/ | E,/D,/^C,/B,,/C,/A,,/ | D,2 E, | ^F,>E,D, | E, ^F,2 | %171
 B,,3 |] %172

